X: 22547
T: Lady Isabella
R: reel
M: 4/4
K: Aminor
A3B cBAG|EAAB cdB2-|BABd edcB|cdea zA_BA|
EAAB cBAG|DECE DCB,2-|B,CDG zG,B,G,|B,CA,2 zEED|
EAAB cBAG|EAAB cdB2-|BABd edcB|cdea zA_BA|
EAAB cBAG|DECE DCB,2-|B,CDG zG,B,G,|B,CA,2 zA,A,G,||
|:A,EEA, EFA,F|GA,GF EDCD|D3C DEGE|EDEG EEDC|
A,EEA, EFA,F|GA,GF EDCD|B,CDG zG,B,G,|1 B,CCB, CECB,:|2 B,CA,2 zEED||

